symbolic/32x32/apps/mixcloud.svg

<svg xmlns="http://www.w3.org/2000/svg" width="32" height="32" version="1">
 <path style="opacity:0.2" d="M 16,6 C 11.858182,6 8.3309089,8.5358667 6.8123633,12.1248 2.9568723,12.698267 -5e-7,15.985066 -5e-7,20.000067 -5e-7,24.4184 3.5817451,28 7.9999998,28 L 25.000001,28 C 28.866182,28 32,24.865733 32,21.000334 32,17.407 29.298182,14.462667 25.812363,14.062266 24.903273,9.476 20.853819,6 16,6 Z"/>
 <path style="fill:#e4e4e4" d="M 16,5 C 11.858182,5 8.3309089,7.5358667 6.8123633,11.1248 2.9568723,11.698267 -5e-7,14.985066 -5e-7,19.000067 -5e-7,23.4184 3.5817451,27 7.9999998,27 L 25.000001,27 C 28.866182,27 32,23.865733 32,20.000334 32,16.407 29.298182,13.462667 25.812363,13.062266 24.903273,8.476 20.853819,5 16,5 Z"/>
 <path style="opacity:0.5;fill:none;stroke:#000000;stroke-width:3;stroke-linecap:round;stroke-linejoin:round" d="m 17.55909,11.459217 c 0,0 2.881819,1.717929 2.881819,6.081566 C 20.440909,21.904419 17.5,23.5 17.5,23.5"/>
 <path style="opacity:0.5;fill:none;stroke:#000000;stroke-width:3;stroke-linecap:round;stroke-linejoin:round" d="m 11.5,13.5 c 0,0 2.999637,1.172475 3,4.081566 3.63e-4,2.909091 -3,3.918434 -3,3.918434"/>
 <path style="fill:#ffffff;opacity:0.2" d="M 16 5 C 11.858182 5 8.3310456 7.5360667 6.8125 11.125 C 2.957009 11.698467 0 14.984999 0 19 C 0 19.158831 0.014307893 19.314163 0.0234375 19.470703 C 0.27075773 15.699802 3.1284037 12.672974 6.8125 12.125 C 8.3310456 8.5360667 11.858182 6 16 6 C 20.853819 6 24.90341 9.476234 25.8125 14.0625 C 29.126445 14.443159 31.725743 17.123675 31.974609 20.474609 C 31.985175 20.317309 32 20.159975 32 20 C 32 16.406666 29.298319 13.462901 25.8125 13.0625 C 24.90341 8.476234 20.853819 5 16 5 z"/>
</svg>

<svg xmlns="http://www.w3.org/2000/svg" width="32" height="32" version="1"><path style="opacity:.2" d="M16 6c-4.142 0-7.67 2.536-9.188 6.125C2.957 12.698 0 15.985 0 20a8 8 0 0 0 8 8h17a7 7 0 0 0 7-7 6.98 6.98 0 0 0-6.188-6.938C24.903 9.476 20.854 6 16 6z"/><path style="fill:#e4e4e4" d="M16 5c-4.142 0-7.67 2.536-9.188 6.125C2.957 11.698 0 14.985 0 19a8 8 0 0 0 8 8h17a7 7 0 0 0 7-7 6.98 6.98 0 0 0-6.188-6.938C24.903 8.476 20.854 5 16 5z"/><path style="opacity:.5;fill:none;stroke:#000;stroke-width:3;stroke-linecap:round;stroke-linejoin:round" d="M17.56 11.46s2.88 1.717 2.88 6.08c0 4.364-2.94 5.96-2.94 5.96M11.5 13.5s3 1.172 3 4.082c0 2.909-3 3.918-3 3.918"/><path style="fill:#fff;opacity:.2" d="M16 5c-4.142 0-7.669 2.536-9.188 6.125C2.958 11.698 0 14.985 0 19c0 .159.014.314.023.47.248-3.77 3.105-6.797 6.79-7.345C8.33 8.536 11.857 6 16 6c4.854 0 8.903 3.476 9.813 8.063a6.977 6.977 0 0 1 6.162 6.412c.01-.158.025-.315.025-.475a6.98 6.98 0 0 0-6.188-6.938C24.904 8.476 20.855 5 16 5z"/></svg>
